images/social/fb.svg

<svg width="30" height="30" viewBox="0 0 30 30" fill="none" xmlns="http://www.w3.org/2000/svg">
<path d="M15 30C23.2843 30 30 23.2843 30 15C30 6.71573 23.2843 0 15 0C6.71573 0 0 6.71573 0 15C0 23.2843 6.71573 30 15 30Z" fill="#3E5ABE"/>
<path d="M18.7709 15.5872H16.0944V25.3929H12.0392V15.5872H10.1105V12.1411H12.0392V9.91105C12.0392 8.31634 12.7967 5.81919 16.1305 5.81919L19.1343 5.83176V9.1768H16.9548C16.5973 9.1768 16.0946 9.35541 16.0946 10.1161V12.1443H19.1252L18.7709 15.5872Z" fill="white"/>
</svg>

<svg width="30" height="30" fill="none" xmlns="http://www.w3.org/2000/svg"><path d="M15 30c8.284 0 15-6.716 15-15 0-8.284-6.716-15-15-15C6.716 0 0 6.716 0 15c0 8.284 6.716 15 15 15Z" fill="#3E5ABE"/><path d="M18.77 15.587h-2.676v9.806H12.04v-9.806h-1.928v-3.446h1.928v-2.23c0-1.595.758-4.092 4.092-4.092l3.003.013v3.345h-2.18c-.357 0-.86.178-.86.94v2.027h3.031l-.354 3.443Z" fill="#fff"/></svg>
